X: 3389
T: Beoga On Ice
R: jig
M: 6/8
K: Gmajor
d2c BAG|AAD ABc|AAD ABc|cBG GBc
d2c BAG|AAD ABc|AAD ABA|1 G3 GBc:|2 G3 G2A||
|:B2e edc|B2E EFG|A2F FGA|BFG E/F/GA|
B2e edc|B2E EFG|A2F FGE-|1 E3 EGA:|2 E3 E2 D||
|:C2e edc|B2G GAG|F2D DAB|G2A GFD|
C2e edc|B2G GAG|F2D DAB|1 G2A GFD:|2 G3 z3||

